X:16
T:The Cliffs of Moher
R:Jig
M:6/8
K:Ador
"Am" a2a bag|eaf ged |"Am"c2A BAG |"Em"EFG ABd|
"Am"eaa bag|eaf ged|"Am"c2A BAG| "Em"EFG "Am"A3:|
"Am"e=fe dBA | ~e3 dBA |"G"GAB dBA| GAB ~d3|
"Am"e=fe dBA |~e3 dBA|"G"GAB dBA| "Em"BAG "Am"[E3A3]||
"Am"e=fe dBA | e=fe dBA | "G"GAB  dBA | GAB ~d3 |
"Am"e=fe dee| cee Bee|"Am"EFG      AGE|"G" DB,G, "Am" A,3 |]
